svn-assets/icon.svg

<?xml version="1.0" encoding="UTF-8" standalone="no"?>
<svg
   width="24"
   height="24"
   viewBox="0 0 24 24"
   version="1.1"
   id="svg181"
   sodipodi:docname="comment-svgrepo-com.svg"
   xmlns:inkscape="http://www.inkscape.org/namespaces/inkscape"
   xmlns:sodipodi="http://sodipodi.sourceforge.net/DTD/sodipodi-0.dtd"
   xmlns="http://www.w3.org/2000/svg"
   xmlns:svg="http://www.w3.org/2000/svg">
  <defs
     id="defs185" />
  <sodipodi:namedview
     id="namedview183"
     pagecolor="#ffffff"
     bordercolor="#000000"
     borderopacity="0.25"
     inkscape:showpageshadow="2"
     inkscape:pageopacity="0.0"
     inkscape:pagecheckerboard="0"
     inkscape:deskcolor="#d1d1d1"
     showgrid="false" />
  <!-- Uploaded to SVGRepo https://www.svgrepo.com -->
  <title
     id="title174">ic_fluent_comment_24_regular</title>
  <desc
     id="desc176">Created with Sketch.</desc>
  <g
     id="🔍-Product-Icons"
     stroke="none"
     stroke-width="1"
     fill="none"
     fill-rule="evenodd"
     style="opacity:1;fill:#85a3a5;fill-opacity:1;fill-rule:evenodd;stroke-width:1;stroke-dasharray:none">
    <g
       id="ic_fluent_comment_24_regular"
       fill="#212121"
       fill-rule="nonzero"
       style="fill:#85a3a5;fill-opacity:1;fill-rule:evenodd;stroke-width:1;stroke-dasharray:none">
      <path
         d="M 5.25,18 C 3.4550746,18 2,16.544925 2,14.75 V 6.25 C 2,4.4550746 3.4550746,3 5.25,3 h 13.5 C 20.544925,3 22,4.4550746 22,6.25 v 8.5 C 22,16.544925 20.544925,18 18.75,18 H 13.012485 L 7.9986815,21.750679 C 7.4458514,22.164165 6.6624979,22.051204 6.2490125,21.498373 6.0873576,21.282241 6,21.019591 6,20.749906 L 5.9992143,18 Z m 7.263515,-1.5 H 18.75 c 0.966498,0 1.75,-0.783502 1.75,-1.75 V 6.25 C 20.5,5.2835017 19.716498,4.5 18.75,4.5 H 5.25 C 4.2835017,4.5 3.5,5.2835017 3.5,6.25 v 8.5 c 0,0.966498 0.7835017,1.75 1.75,1.75 H 7.4987857 L 7.499,17.249786 7.4998574,20.25057 Z"
         id="🎨-Color"
         style="fill:#85a3a5;fill-opacity:1;fill-rule:evenodd;stroke-width:1;stroke-dasharray:none" />
    </g>
  </g>
  <path
     style="opacity:1;fill:#0e373b;fill-opacity:1;fill-rule:evenodd;stroke-width:0.101695;stroke-dasharray:none"
     d="M 9.7797935,4.2306674 C 8.066694,4.2875125 6.3298209,4.1249497 4.6306938,4.3756621 3.7848322,4.6757013 3.092466,5.5714855 3.2547057,6.4913775 c 0.033214,2.8378553 -0.1512305,5.6857825 0.060906,8.5177585 0.099714,0.99746 1.0450091,1.787662 2.0480807,1.700153 0.6371822,0.02569 1.2751495,0.0097 1.9126581,0.01436 0.02768,1.15335 -0.053904,2.328602 0.039194,3.468839 0.3595326,0.53495 0.9111787,-0.316456 1.2908343,-0.479612 1.3356037,-0.992115 2.6681512,-1.988331 4.0018042,-2.983069 2.215732,-0.05289 4.444089,0.102899 6.652476,-0.104277 1.056478,-0.176476 1.536061,-1.347075 1.488679,-2.315347 0.05786,-2.873918 0.02759,-5.7607874 -0.03837,-8.6279361 C 20.348556,4.8498008 19.528849,4.1942951 18.583081,4.2765158 15.649795,4.1947901 12.713966,4.2444464 9.7797935,4.2306674 Z"
     id="path3183" />
  <g
     id="g304"
     transform="matrix(0.53163968,0,0,0.51249789,8.3489859,8.8967981)"
     style="fill:#999999">
	<path
   d="M 11.313,7.422 11.204,7.326 C 11.739,5.406 11.252,3.26 9.743,1.75 8.243,0.254 6.123,-0.236 4.214,0.281 L 7.446,3.513 6.598,6.68 3.431,7.527 0.197,4.297 c -0.514,1.908 -0.025,4.029 1.475,5.529 1.571,1.572 3.835,2.033 5.814,1.389 l 0.018,0.018 13.3,13.299 c 0.526,0.525 1.214,0.791 1.904,0.791 0.69,0 1.377,-0.266 1.906,-0.791 1.053,-1.049 1.053,-2.754 0,-3.811 z M 22.94,24.08 c -0.566,0 -1.027,-0.461 -1.027,-1.029 0,-0.57 0.461,-1.029 1.027,-1.029 0.57,0 1.03,0.459 1.03,1.029 0.001,0.568 -0.459,1.029 -1.03,1.029 z"
   id="path272"
   style="fill:#999999" />

	<g
   id="g274"
   style="fill:#999999">
	</g>

	<g
   id="g276"
   style="fill:#999999">
	</g>

	<g
   id="g278"
   style="fill:#999999">
	</g>

	<g
   id="g280"
   style="fill:#999999">
	</g>

	<g
   id="g282"
   style="fill:#999999">
	</g>

	<g
   id="g284"
   style="fill:#999999">
	</g>

	<g
   id="g286"
   style="fill:#999999">
	</g>

	<g
   id="g288"
   style="fill:#999999">
	</g>

	<g
   id="g290"
   style="fill:#999999">
	</g>

	<g
   id="g292"
   style="fill:#999999">
	</g>

	<g
   id="g294"
   style="fill:#999999">
	</g>

	<g
   id="g296"
   style="fill:#999999">
	</g>

	<g
   id="g298"
   style="fill:#999999">
	</g>

	<g
   id="g300"
   style="fill:#999999">
	</g>

	<g
   id="g302"
   style="fill:#999999">
	</g>

</g>
</svg>

<svg height="200" viewBox="0 0 200 200" width="200" xmlns="http://www.w3.org/2000/svg"><path d="m5.25 18c-1.7949254 0-3.25-1.455075-3.25-3.25v-8.5c0-1.7949254 1.4550746-3.25 3.25-3.25h13.5c1.794925 0 3.25 1.4550746 3.25 3.25v8.5c0 1.794925-1.455075 3.25-3.25 3.25h-5.737515l-5.0138035 3.750679c-.5528301.413486-1.3361836.300525-1.749669-.252306-.1616549-.216132-.2490125-.478782-.2490125-.748467l-.0007857-2.749906zm7.263515-1.5h6.236485c.966498 0 1.75-.783502 1.75-1.75v-8.5c0-.9664983-.783502-1.75-1.75-1.75h-13.5c-.9664983 0-1.75.7835017-1.75 1.75v8.5c0 .966498.7835017 1.75 1.75 1.75h2.2487857l.0002143.749786.0008574 3.000784z" fill="#85a3a5" fill-rule="evenodd" transform="matrix(9.175 0 0 9.2632593 -11.35 -15.289778)"/><path d="m78.379605 23.899991c-15.717688.526571-31.653498-.97929-47.242989 1.343124-7.760781 2.779341-14.11324 11.077222-12.624691 19.59842.304738 26.28779-1.38754 52.668878.558812 78.902205.914876 9.23973 9.587959 16.55958 18.791141 15.74896 5.846146.23797 11.699496.0898 17.548638.13302.253964 10.68378-.494569 21.57044.359605 32.13275 3.298711 4.95538 8.360064-2.93141 11.843404-4.44277 12.254164-9.19021 24.480288-18.41842 36.716555-27.63294 20.32934-.48993 40.77452.95318 61.03647-.96594 9.69318-1.63475 14.09336-12.47831 13.65863-21.44766.53086-26.62185.25313-53.36367-.35205-79.922811-3.32513-7.711165-10.84594-13.783284-19.52336-13.021652-26.9129-.757046-53.84913-.297067-80.770165-.424706z" fill="#0e373b" fill-rule="evenodd" stroke-width=".937529"/><path d="m11.313 7.422-.109-.096c.535-1.92.048-4.066-1.461-5.576-1.5-1.496-3.62-1.986-5.529-1.469l3.232 3.232-.848 3.167-3.167.847-3.234-3.23c-.514 1.908-.025 4.029 1.475 5.529 1.571 1.572 3.835 2.033 5.814 1.389l.018.018 13.3 13.299c.526.525 1.214.791 1.904.791s1.377-.266 1.906-.791c1.053-1.049 1.053-2.754 0-3.811zm11.627 16.658c-.566 0-1.027-.461-1.027-1.029 0-.57.461-1.029 1.027-1.029.57 0 1.03.459 1.03 1.029.001.568-.459 1.029-1.03 1.029z" fill="#999" transform="matrix(4.8777941 0 0 4.7474008 65.251946 67.12357)"/></svg>
